;FLAVOR:Repetier
;TIME:666
;Generated with Cura_SteamEngine 2.3.1
M104 S200
M109 S200

;LAYER_COUNT:90
;LAYER:0
M107
G0 F1800 X150.625 Y150.567 Z.3
;TYPE:WALL-OUTER
G1 X150.775 Y150.438 E0
G1 X150.937 Y150.324 E0
G1 X151.173 Y150.194 E0
G1 X151.358 Y150.121 E0
G1 X151.548 Y150.066 E0
G1 X151.744 Y150.031 E0
G1 X151.941 Y150.015 E0
G1 X152.138 Y150.019 E0
G1 X152.404 Y150.056 E0
G1 X152.598 Y150.105 E0
G1 X152.783 Y150.175 E0.00001
G1 X152.961 Y150.263 E0.00001
G1 X153.13 Y150.367 E0.00001
G1 X153.287 Y150.488 E0.00001
G1 X153.48 Y150.675 E0.00001
G1 X153.605 Y150.829 E0.00001
G1 X153.713 Y150.996 E0.00001
G1 X153.805 Y151.172 E0.00001
G1 X153.878 Y151.356 E0.00001
G1 X153.933 Y151.547 E0.00001
G1 X153.977 Y151.811 E0.00001
G1 X153.986 Y152.009 E0.00001
G1 X153.975 Y152.207 E0.00001
G1 X153.945 Y152.403 E0.00001
G1 X153.894 Y152.595 E0.00001
G1 X153.825 Y152.781 E0.00001
G1 X153.737 Y152.959 E0.00001
G1 X153.593 Y153.187 E0.00001
G1 X153.466 Y153.339 E0.00001
G1 X153.325 Y153.478 E0.00001
G1 X153.171 Y153.603 E0.00002
G1 X153.006 Y153.712 E0.00002
G1 X152.83 Y153.803 E0.00002
G1 X152.706 Y153.856 E0.00002
G1 X152.517 Y153.917 E0.00002
G1 X152.323 Y153.959 E0.00002
G1 X152.126 Y153.981 E0.00002
G1 X151.992 Y153.986 E0.00002
G1 X151.859 Y153.981 E0.00002
G1 X151.661 Y153.956 E0.00002
G1 X151.468 Y153.913 E0.00002
G1 X151.28 Y153.85 E0.00002
G1 X151.099 Y153.769 E0.00002
G1 X150.927 Y153.67 E0.00002
G1 X150.71 Y153.51 E0.00002
G1 X150.565 Y153.374 E0.00002
G1 X150.436 Y153.224 E0.00002
G1 X150.322 Y153.062 E0.00002
G1 X150.225 Y152.889 E0.00002
G1 X150.145 Y152.707 E0.00002
G1 X150.101 Y152.58 E0.00002
G1 X150.052 Y152.388 E0.00002
G1 X150.024 Y152.191 E0.00003
G1 X150.015 Y151.994 E0.00003
G1 X150.019 Y151.86 E0.00003
G1 X150.044 Y151.663 E0.00003
G1 X150.087 Y151.47 E0.00003
G1 X150.176 Y151.217 E0.00003
G1 X150.262 Y151.037 E0.00003
G1 X150.368 Y150.869 E0.00003
G1 X150.489 Y150.712 E0.00003
G1 X150.625 Y150.567 E0.00003
G0 X150.694 Y150.639
G0 X150.716 Y150.655
G0 X150.58 Y150.554
G0 X150.603 Y150.571
G0 X150.672 Y150.642
G1 X150.554 Y150.768 E0.00003
G1 X150.448 Y150.905 E0.00003
G1 X150.355 Y151.051 E0.00003
G1 X150.275 Y151.204 E0.00003
G1 X150.21 Y151.364 E0.00003
G1 X150.16 Y151.53 E0.00003
G1 X150.125 Y151.699 E0.00003
G1 X150.105 Y151.871 E0.00003
G1 X150.101 Y152.043 E0.00003
G1 X150.113 Y152.215 E0.00003
G1 X150.14 Y152.386 E0.00003
G1 X150.183 Y152.554 E0.00003
G1 X150.241 Y152.717 E0.00003
G1 X150.314 Y152.874 E0.00004
G1 X150.4 Y153.023 E0.00004
G1 X150.5 Y153.165 E0.00004
G1 X150.612 Y153.296 E0.00004
G1 X150.736 Y153.417 E0.00004
G1 X150.87 Y153.526 E0.00004
G1 X151.013 Y153.623 E0.00004
G1 X151.165 Y153.706 E0.00004
G1 X151.324 Y153.775 E0.00004
G1 X151.488 Y153.829 E0.00004
G1 X151.656 Y153.868 E0.00004
G1 X151.828 Y153.892 E0.00004
G1 X152 Y153.899 E0.00004
G1 X152.172 Y153.892 E0.00004
G1 X152.344 Y153.868 E0.00004
G1 X152.512 Y153.829 E0.00004
G1 X152.676 Y153.775 E0.00004
G1 X152.835 Y153.706 E0.00004
G1 X152.987 Y153.623 E0.00004
G1 X153.13 Y153.526 E0.00004
G1 X153.264 Y153.417 E0.00004
G1 X153.388 Y153.296 E0.00004
G1 X153.5 Y153.165 E0.00004
G1 X153.6 Y153.023 E0.00004
G1 X153.686 Y152.874 E0.00004
G1 X153.759 Y152.717 E0.00005
G1 X153.817 Y152.554 E0.00005
G1 X153.86 Y152.386 E0.00005
G1 X153.887 Y152.215 E0.00005
G1 X153.899 Y152.043 E0.00005
G1 X153.895 Y151.871 E0.00005
G1 X153.875 Y151.699 E0.00005
G1 X153.84 Y151.53 E0.00005
G1 X153.79 Y151.364 E0.00005
G1 X153.725 Y151.204 E0.00005
G1 X153.645 Y151.051 E0.00005
G1 X153.552 Y150.905 E0.00005
G1 X153.446 Y150.768 E0.00005
G1 X153.328 Y150.642 E0.00005
G1 X153.199 Y150.527 E0.00005
G1 X153.06 Y150.424 E0.00005
G1 X152.912 Y150.334 E0.00005
G1 X152.756 Y150.258 E0.00005
G1 X152.595 Y150.196 E0.00005
G1 X152.428 Y150.15 E0.00005
G1 X152.258 Y150.118 E0.00005
G1 X152.086 Y150.102 E0.00005
G1 X151.914 Y150.102 E0.00005
G1 X151.742 Y150.118 E0.00005
G1 X151.572 Y150.15 E0.00005
G1 X151.405 Y150.196 E0.00006
G1 X151.244 Y150.258 E0.00006
G1 X151.088 Y150.334 E0.00006
G1 X150.94 Y150.424 E0.00006
G1 X150.801 Y150.527 E0.00006
G1 X150.672 Y150.642 E0.00006
;TIME_ELAPSED:7.944511
;LAYER:1
G0 F1500 X150.607 Y150.567 Z.554
G0 X150.733 Y150.454
G0 X150.796 Y150.531
;TYPE:WALL-OUTER
G1 F1200 X150.668 Y150.646 E0.00006
G1 X150.55 Y150.773 E0.00006
G1 X150.445 Y150.91 E0.00006
G1 X150.352 Y151.056 E0.00006
G1 X150.273 Y151.21 E0.00006
G1 X150.208 Y151.37 E0.00006
G1 X150.159 Y151.536 E0.00006
G1 X150.124 Y151.705 E0.00006
G1 X150.105 Y151.877 E0.00006
G1 X150.101 Y152.049 E0.00006
G1 X150.114 Y152.221 E0.00006
G1 X150.141 Y152.392 E0.00006
G1 X150.185 Y152.56 E0.00006
G1 X150.243 Y152.723 E0.00006
G1 X150.317 Y152.879 E0.00006
G1 X150.403 Y153.028 E0.00006
G1 X150.504 Y153.17 E0.00006
G1 X150.616 Y153.3 E0.00006
G1 X150.741 Y153.421 E0.00006
G1 X150.875 Y153.53 E0.00006
G1 X151.018 Y153.626 E0.00006
G1 X151.171 Y153.709 E0.00006
G1 X151.33 Y153.777 E0.00007
G1 X151.494 Y153.83 E0.00007
G1 X151.662 Y153.869 E0.00007
G1 X151.834 Y153.892 E0.00007
G1 X152.006 Y153.899 E0.00007
G1 X152.178 Y153.891 E0.00007
G1 X152.35 Y153.867 E0.00007
G1 X152.518 Y153.827 E0.00007
G1 X152.682 Y153.773 E0.00007
G1 X152.84 Y153.703 E0.00007
G1 X152.992 Y153.62 E0.00007
G1 X153.135 Y153.522 E0.00007
G1 X153.269 Y153.413 E0.00007
G1 X153.392 Y153.291 E0.00007
G1 X153.504 Y153.16 E0.00007
G1 X153.603 Y153.018 E0.00007
G1 X153.689 Y152.868 E0.00007
G1 X153.761 Y152.711 E0.00007
G1 X153.819 Y152.548 E0.00007
G1 X153.861 Y152.38 E0.00007
G1 X153.888 Y152.209 E0.00007
G1 X153.899 Y152.037 E0.00007
G1 X153.894 Y151.865 E0.00007
G1 X153.874 Y151.693 E0.00007
G1 X153.838 Y151.524 E0.00007
G1 X153.788 Y151.358 E0.00007
G1 X153.722 Y151.198 E0.00007
G1 X153.642 Y151.046 E0.00007
G1 X153.548 Y150.9 E0.00007
G1 X153.442 Y150.763 E0.00008
G1 X153.323 Y150.638 E0.00008
G1 X153.194 Y150.523 E0.00008
G1 X153.055 Y150.421 E0.00008
G1 X152.907 Y150.331 E0.00008
G1 X152.75 Y150.256 E0.00008
G1 X152.589 Y150.194 E0.00008
G1 X152.422 Y150.149 E0.00008
G1 X152.252 Y150.117 E0.00008
G1 X152.08 Y150.102 E0.00008
G1 X151.908 Y150.102 E0.00008
G1 X151.736 Y150.119 E0.00008
G1 X151.566 Y150.151 E0.00008
G1 X151.399 Y150.198 E0.00008
G1 X151.238 Y150.261 E0.00008
G1 X151.083 Y150.337 E0.00008
G1 X150.935 Y150.428 E0.00008
G1 X150.796 Y150.531 E0.00008
G0 F1500 X150.733 Y150.454
G0 X150.031 Y149.736
G0 X149.966 Y149.661
G1 F1200 X150.145 Y149.516 E0.00008
G1 X150.335 Y149.385 E0.00008
G1 X150.534 Y149.269 E0.00008
G1 X150.74 Y149.167 E0.00008
G1 X150.955 Y149.082 E0.00008
G1 X151.174 Y149.012 E0.00008
G1 X151.399 Y148.959 E0.00008
G1 X151.626 Y148.923 E0.00008
G1 X151.856 Y148.903 E0.00009
G1 X152.087 Y148.901 E0.00009
G1 X152.317 Y148.916 E0.00009
G1 X152.545 Y148.948 E0.00009
G1 X152.77 Y148.997 E0.00009
G1 X152.991 Y149.063 E0.00009
G1 X153.206 Y149.144 E0.00009
G1 X153.416 Y149.242 E0.00009
G1 X153.616 Y149.355 E0.00009
G1 X153.809 Y149.482 E0.00009
G1 X153.99 Y149.623 E0.00009
G1 X154.162 Y149.777 E0.00009
G1 X154.321 Y149.944 E0.00009
G1 X154.467 Y150.122 E0.00009
G1 X154.6 Y150.311 E0.00009
G1 X154.718 Y150.508 E0.00009
G1 X154.821 Y150.715 E0.00009
G1 X154.909 Y150.927 E0.00009
G1 X154.98 Y151.147 E0.00009
G1 X155.035 Y151.37 E0.00009
G1 X155.074 Y151.598 E0.00009
G1 X155.095 Y151.827 E0.00009
G1 X155.099 Y152.058 E0.0001
G1 X155.087 Y152.289 E0.0001
G1 X155.057 Y152.517 E0.0001
G1 X155.01 Y152.742 E0.0001
G1 X154.947 Y152.964 E0.0001
G1 X154.866 Y153.18 E0.0001
G1 X154.771 Y153.389 E0.0001
G1 X154.66 Y153.592 E0.0001
G1 X154.534 Y153.785 E0.0001
G1 X154.396 Y153.968 E0.0001
G1 X154.242 Y154.14 E0.0001
G1 X154.077 Y154.302 E0.0001
G1 X153.901 Y154.449 E0.0001
G1 X153.714 Y154.584 E0.0001
G1 X153.517 Y154.704 E0.0001
G1 X153.312 Y154.809 E0.0001
G1 X153.1 Y154.898 E0.0001
G1 X152.882 Y154.972 E0.0001
G1 X152.658 Y155.029 E0.0001
G1 X152.431 Y155.07 E0.0001
G1 X152.202 Y155.093 E0.0001
G1 X151.97 Y155.1 E0.0001
G1 X151.626 Y155.077 E0.00011
G1 X151.399 Y155.041 E0.00011
G1 X151.174 Y154.988 E0.00011
G1 X150.955 Y154.918 E0.00011
G1 X150.74 Y154.833 E0.00011
G1 X150.534 Y154.731 E0.00011
G1 X150.335 Y154.615 E0.00011
G1 X150.145 Y154.484 E0.00011
G1 X149.966 Y154.339 E0.00011
G1 X149.797 Y154.182 E0.00011
G1 X149.641 Y154.012 E0.00011
G1 X149.499 Y153.832 E0.00011
G1 X149.37 Y153.641 E0.00011
G1 X149.255 Y153.441 E0.00011
G1 X149.156 Y153.233 E0.00011
G1 X149.072 Y153.019 E0.00011
G1 X149.004 Y152.798 E0.00011
G1 X148.953 Y152.573 E0.00011
G1 X148.919 Y152.345 E0.00011
G1 X148.902 Y152.116 E0.00011
G1 X148.902 Y151.884 E0.00011
G1 X148.919 Y151.655 E0.00012
G1 X148.953 Y151.427 E0.00012
G1 X149.004 Y151.202 E0.00012
G1 X149.072 Y150.981 E0.00012
G1 X149.156 Y150.767 E0.00012
G1 X149.255 Y150.559 E0.00012
G1 X149.37 Y150.359 E0.00012
G1 X149.499 Y150.168 E0.00012
G1 X149.641 Y149.988 E0.00012
G1 X149.797 Y149.818 E0.00012
G1 X149.966 Y149.661 E0.00012
;TIME_ELAPSED:9.668901
;LAYER:2
G0 X149.966 Y149.661 Z.808
G0 X149.509 Y149.136
G0 X149.444 Y149.061
;TYPE:WALL-OUTER
G1 F600 X149.67 Y148.879 E0.00012
G1 X149.908 Y148.714 E0.00012
G1 X150.158 Y148.568 E0.00012
G1 X150.417 Y148.441 E0.00012
G1 X150.686 Y148.333 E0.00012
G1 X150.963 Y148.246 E0.00012
G1 X151.244 Y148.179 E0.00012
G1 X151.53 Y148.134 E0.00012
G1 X151.819 Y148.109 E0.00013
G1 X152.109 Y148.107 E0.00013
G1 X152.398 Y148.125 E0.00013
G1 X152.684 Y148.166 E0.00013
G1 X152.968 Y148.227 E0.00013
G1 X153.245 Y148.309 E0.00013
G1 X153.516 Y148.412 E0.00013
G1 X153.779 Y148.534 E0.00013
G1 X154.031 Y148.676 E0.00013
G1 X154.272 Y148.836 E0.00013
G1 X154.501 Y149.013 E0.00013
G1 X154.716 Y149.207 E0.00013
G1 X154.915 Y149.417 E0.00013
G1 X155.1 Y149.64 E0.00013
G1 X155.266 Y149.877 E0.00013
G1 X155.415 Y150.126 E0.00013
G1 X155.545 Y150.384 E0.00013
G1 X155.655 Y150.653 E0.00013
G1 X155.745 Y150.928 E0.00014
G1 X155.814 Y151.209 E0.00014
G1 X155.862 Y151.494 E0.00014
G1 X155.889 Y151.782 E0.00014
G1 X155.894 Y152.073 E0.00014
G1 X155.878 Y152.362 E0.00014
G1 X155.841 Y152.649 E0.00014
G1 X155.782 Y152.933 E0.00014
G1 X155.702 Y153.211 E0.00014
G1 X155.602 Y153.482 E0.00014
G1 X155.482 Y153.746 E0.00014
G1 X155.343 Y154 E0.00014
G1 X155.185 Y154.242 E0.00014
G1 X155.01 Y154.473 E0.00014
G1 X154.818 Y154.689 E0.00014
G1 X154.61 Y154.891 E0.00014
G1 X154.388 Y155.077 E0.00014
G1 X154.153 Y155.246 E0.00015
G1 X153.906 Y155.398 E0.00015
G1 X153.648 Y155.529 E0.00015
G1 X153.382 Y155.642 E0.00015
G1 X153.107 Y155.735 E0.00015
G1 X152.827 Y155.806 E0.00015
G1 X152.542 Y155.857 E0.00015
G1 X152.254 Y155.887 E0.00015
G1 X151.964 Y155.895 E0.00015
G1 X151.819 Y155.891 E0.00015
G1 X151.53 Y155.866 E0.00015
G1 X151.244 Y155.821 E0.00015
G1 X150.963 Y155.754 E0.00015
G1 X150.686 Y155.667 E0.00015
G1 X150.417 Y155.559 E0.00015
G1 X150.158 Y155.432 E0.00015
G1 X149.908 Y155.286 E0.00015
G1 X149.67 Y155.121 E0.00015
G1 X149.444 Y154.939 E0.00016
G1 X149.233 Y154.741 E0.00016
G1 X149.037 Y154.528 E0.00016
G1 X148.858 Y154.301 E0.00016
G1 X148.695 Y154.062 E0.00016
G1 X148.551 Y153.811 E0.00016
G1 X148.426 Y153.549 E0.00016
G1 X148.321 Y153.28 E0.00016
G1 X148.236 Y153.003 E0.00016
G1 X148.172 Y152.72 E0.00016
G1 X148.129 Y152.434 E0.00016
G1 X148.108 Y152.145 E0.00016
G1 X148.108 Y151.855 E0.00016
G1 X148.129 Y151.566 E0.00016
G1 X148.172 Y151.28 E0.00016
G1 X148.236 Y150.997 E0.00016
G1 X148.321 Y150.72 E0.00016
G1 X148.426 Y150.451 E0.00017
G1 X148.551 Y150.189 E0.00017
G1 X148.695 Y149.938 E0.00017
G1 X148.858 Y149.699 E0.00017
G1 X149.037 Y149.472 E0.00017
G1 X149.233 Y149.259 E0.00017
G1 X149.444 Y149.061 E0.00017
G0 F1200 X149.509 Y149.136
G0 X150.729 Y150.458
G0 X150.792 Y150.535
G1 F600 X150.664 Y150.651 E0.00017
G1 X150.547 Y150.777 E0.00017
G1 X150.441 Y150.915 E0.00017
G1 X150.349 Y151.061 E0.00017
G1 X150.27 Y151.215 E0.00017
G1 X150.206 Y151.375 E0.00017
G1 X150.157 Y151.542 E0.00017
G1 X150.123 Y151.711 E0.00017
G1 X150.104 Y151.883 E0.00017
G1 X150.102 Y152.055 E0.00017
G1 X150.115 Y152.227 E0.00017
G1 X150.143 Y152.398 E0.00017
G1 X150.187 Y152.565 E0.00017
G1 X150.246 Y152.728 E0.00017
G1 X150.32 Y152.884 E0.00017
G1 X150.407 Y153.033 E0.00017
G1 X150.507 Y153.174 E0.00017
G1 X150.62 Y153.305 E0.00017
G1 X150.745 Y153.425 E0.00018
G1 X150.88 Y153.533 E0.00018
G1 X151.023 Y153.629 E0.00018
G1 X151.176 Y153.711 E0.00018
G1 X151.335 Y153.779 E0.00018
G1 X151.5 Y153.832 E0.00018
G1 X151.668 Y153.87 E0.00018
G1 X151.84 Y153.893 E0.00018
G1 X152.012 Y153.899 E0.00018
G1 X152.184 Y153.891 E0.00018
G1 X152.356 Y153.866 E0.00018
G1 X152.523 Y153.826 E0.00018
G1 X152.687 Y153.77 E0.00018
G1 X152.846 Y153.7 E0.00018
G1 X152.997 Y153.616 E0.00018
G1 X153.14 Y153.519 E0.00018
G1 X153.273 Y153.409 E0.00018
G1 X153.396 Y153.287 E0.00018
G1 X153.507 Y153.155 E0.00018
G1 X153.606 Y153.013 E0.00018
G1 X153.691 Y152.863 E0.00018
G1 X153.763 Y152.706 E0.00018
G1 X153.82 Y152.542 E0.00018
G1 X153.862 Y152.374 E0.00018
G1 X153.888 Y152.203 E0.00018
G1 X153.899 Y152.031 E0.00018
G1 X153.894 Y151.859 E0.00018
G1 X153.873 Y151.687 E0.00018
G1 X153.837 Y151.518 E0.00018
G1 X153.786 Y151.353 E0.00019
G1 X153.72 Y151.193 E0.00019
G1 X153.639 Y151.041 E0.00019
G1 X153.545 Y150.895 E0.00019
G1 X153.438 Y150.759 E0.00019
G1 X153.319 Y150.634 E0.00019
G1 X153.189 Y150.52 E0.00019
G1 X153.05 Y150.417 E0.00019
G1 X152.901 Y150.328 E0.00019
G1 X152.745 Y150.253 E0.00019
G1 X152.584 Y150.193 E0.00019
G1 X152.416 Y150.148 E0.00019
G1 X152.246 Y150.117 E0.00019
G1 X152.074 Y150.102 E0.00019
G1 X151.902 Y150.103 E0.00019
G1 X151.73 Y150.12 E0.00019
G1 X151.56 Y150.153 E0.00019
G1 X151.394 Y150.2 E0.00019
G1 X151.233 Y150.263 E0.00019
G1 X151.078 Y150.34 E0.00019
G1 X150.93 Y150.431 E0.00019
G1 X150.792 Y150.535 E0.00019
;TIME_ELAPSED:13.539147
;LAYER:3
G0 F1200 X150.732 Y150.456 Z1.062
G0 X150.87 Y150.352
G0 X150.926 Y150.434
;TYPE:WALL-OUTER
G1 F600 X150.788 Y150.539 E0.00019
G1 X150.66 Y150.655 E0.00019
G1 X150.543 Y150.782 E0.00019
G1 X150.438 Y150.92 E0.00019
G1 X150.347 Y151.066 E0.00019
G1 X150.268 Y151.22 E0.00019
G1 X150.204 Y151.381 E0.00019
G1 X150.156 Y151.547 E0.0002
G1 X150.123 Y151.717 E0.0002
G1 X150.104 Y151.889 E0.0002
G1 X150.102 Y152.061 E0.0002
G1 X150.115 Y152.233 E0.0002
G1 X150.144 Y152.403 E0.0002
G1 X150.189 Y152.571 E0.0002
G1 X150.248 Y152.733 E0.0002
G1 X150.322 Y152.889 E0.0002
G1 X150.41 Y153.038 E0.0002
G1 X150.511 Y153.179 E0.0002
G1 X150.624 Y153.309 E0.0002
G1 X150.749 Y153.429 E0.0002
G1 X150.884 Y153.536 E0.0002
G1 X151.028 Y153.632 E0.0002
G1 X151.181 Y153.713 E0.0002
G1 X151.341 Y153.781 E0.0002
G1 X151.505 Y153.833 E0.0002
G1 X151.674 Y153.871 E0.0002
G1 X151.846 Y153.893 E0.0002
G1 X152.018 Y153.899 E0.0002
G1 X152.19 Y153.89 E0.0002
G1 X152.361 Y153.864 E0.0002
G1 X152.529 Y153.824 E0.0002
G1 X152.692 Y153.768 E0.0002
G1 X152.851 Y153.698 E0.0002
G1 X153.002 Y153.613 E0.0002
G1 X153.144 Y153.515 E0.0002
G1 X153.277 Y153.405 E0.0002
G1 X153.4 Y153.283 E0.00021
G1 X153.511 Y153.151 E0.00021
G1 X153.609 Y153.008 E0.00021
G1 X153.694 Y152.858 E0.00021
G1 X153.765 Y152.7 E0.00021
G1 X153.822 Y152.537 E0.00021
G1 X153.863 Y152.369 E0.00021
G1 X153.889 Y152.197 E0.00021
G1 X153.899 Y152.025 E0.00021
G1 X153.893 Y151.853 E0.00021
G1 X153.872 Y151.682 E0.00021
G1 X153.835 Y151.513 E0.00021
G1 X153.784 Y151.347 E0.00021
G1 X153.717 Y151.188 E0.00021
G1 X153.636 Y151.036 E0.00021
G1 X153.541 Y150.891 E0.00021
G1 X153.434 Y150.755 E0.00021
G1 X153.315 Y150.63 E0.00021
G1 X153.185 Y150.516 E0.00021
G1 X153.045 Y150.414 E0.00021
G1 X152.896 Y150.326 E0.00021
G1 X152.74 Y150.251 E0.00021
G1 X152.578 Y150.191 E0.00021
G1 X152.411 Y150.146 E0.00021
G1 X152.24 Y150.116 E0.00021
G1 X152.068 Y150.102 E0.00021
G1 X151.896 Y150.103 E0.00021
G1 X151.724 Y150.121 E0.00021
G1 X151.555 Y150.154 E0.00021
G1 X151.388 Y150.202 E0.00022
G1 X151.228 Y150.265 E0.00022
G1 X151.073 Y150.343 E0.00022
G1 X150.926 Y150.434 E0.00022
G0 F1200 X150.87 Y150.352
G0 X149.613 Y148.251
G0 X149.56 Y148.167
G1 F600 X149.851 Y147.997 E0.00022
G1 X150.154 Y147.848 E0.00022
G1 X150.468 Y147.723 E0.00022
G1 X150.627 Y147.67 E0.00022
G1 X150.952 Y147.58 E0.00022
